projects/cadence/stacked/black/cadence-stacked-black.svg

<svg xmlns="http://www.w3.org/2000/svg" role="img" viewBox="16.42 29.42 1070.16 764.16"><path fill="#040404" fill-rule="evenodd" d="M559.293 56.5c-2.217 12.94-7.139 18.049-20.703 21.492-9.193 2.334-17.299 2.574-21.903.651-1.787-.747-6.612-4.978-10.722-9.402l-7.473-8.044-11.996 4.982c-15.942 6.621-15.831 6.498-14.366 15.919 1.713 11.02.799 14.201-5.991 20.845-3.136 3.069-9.063 7.358-13.171 9.531-11.813 6.25-18.038 5.487-32.118-3.934l-3.65-2.443-11.1 9.99c-6.105 5.494-11.1 10.343-11.1 10.775 0 .432 1.8 4.264 4 8.516 6.454 12.471 4.983 20.482-6.196 33.739-8.228 9.758-14.989 11.997-28.27 9.361-4.748-.942-8.863-1.483-9.144-1.201-.281.281-3.581 6.215-7.332 13.187l-6.821 12.676 7.315 7.315c5.563 5.563 7.482 8.208 8.015 11.048 1.626 8.669-1.744 23.234-7.337 31.714-3.696 5.603-8.356 7.851-18.872 9.103l-9.142 1.089-.641 4.546c-.352 2.5-.916 9.544-1.253 15.654l-.613 11.109 6.271 2.118c13.63 4.603 17.234 10.403 17.846 28.722.378 11.323.249 12.358-2.113 17-2.129 4.185-3.537 5.478-9.182 8.442-3.667 1.925-7.424 4.336-8.349 5.357-2.373 2.621-2.095 11.064.737 22.409l2.313 9.266 6.134-.625c3.628-.37 7.907-.147 10.475.547 10.009 2.703 19.96 17.533 20.938 31.205.682 9.535-1.324 14.356-8.782 21.106l-5.848 5.292 7.794 12.29c4.287 6.76 8.252 12.748 8.813 13.309.691.691 3.321.188 8.191-1.569 8.509-3.069 14.765-3.287 19.843-.69 4.341 2.22 14.719 12.76 18.545 18.833 3.647 5.789 3.669 13.594.06 21.27-4.975 10.582-5.603 8.89 6.899 18.588 6.163 4.781 11.768 9.134 12.455 9.674.896.704 2.406-.211 5.345-3.239 2.252-2.321 6.575-5.356 9.606-6.743 7.032-3.22 11.453-2.71 22.855 2.633 16.127 7.557 22.059 16.905 19.503 30.733-.611 3.306-.689 6.123-.184 6.628.484.484 7.039 2.835 14.567 5.225l13.688 4.346 2.686-3.981c6.379-9.458 9.011-12.489 12.732-14.663 3.49-2.04 4.889-2.253 11.953-1.826 18.715 1.134 25.848 5.064 32.5 17.908l4.5 8.689 14.731.014 14.731.014.575-2.75c2.602-12.434 4.674-16.8 9.808-20.673 7.745-5.842 28.439-8.938 35.33-5.286 1.746.925 6 4.838 9.454 8.696 4.365 4.876 6.988 7.013 8.606 7.013 2.107 0 21.722-7.737 25.207-9.943 1.24-.785 1.258-2.044.127-9.009-1.058-6.516-1.072-8.965-.072-12.536 2.816-10.057 20.732-22.513 32.379-22.511 4.078.001 12.633 3.535 19.253 7.954l3.13 2.089 4.056-3.39c10.846-9.061 18.234-16.128 17.974-17.19-.435-1.77-38.704-38.464-40.115-38.464-.672 0-5.037 3.174-9.698 7.053-33.742 28.076-64.98 42.849-105.976 50.117-11.473 2.034-52.724 1.719-65.5-.5-12.65-2.198-26.783-5.751-38.701-9.729-12.281-4.1-39.107-17.314-49.969-24.614-45.027-30.263-74.125-74.614-86.489-131.827-2.271-10.51-2.654-15.043-3.082-36.5-.505-25.339.08-33.036 3.801-50 10.35-47.188 35.55-88.039 73.376-118.948 48.187-39.374 119.349-55.301 180.512-40.398 30.276 7.376 59.123 21.575 84.474 41.579 6.923 5.462 9.276 6.821 10.5 6.064 1.82-1.125 22.871-28.5 29.705-38.629 2.535-3.757 4.219-7.17 3.741-7.583-.477-.413-5.898-4.655-12.046-9.426l-11.177-8.676-7.629 5.474c-8.106 5.815-12.193 7.17-18.561 6.152-9.766-1.562-24.278-10.281-27.932-16.783-1.983-3.527-2.467-6.053-2.834-14.79l-.443-10.536-12.123-3.798c-15.405-4.827-16.484-4.805-19.451.389-3.061 5.36-8.83 11.681-12.297 13.474-3.336 1.725-15.011 1.897-23.41.344-11.597-2.144-16.82-6.668-20.985-18.177l-2.256-6.232-15.905-.274-15.905-.274-1.121 6.548M566 127.955c-43.157 4.712-83.249 24.102-114.137 55.199-74.553 75.058-73.535 195.263 2.273 268.377 29.503 28.455 65.089 46.049 104.992 51.908 13.855 2.035 39.889 2.035 53.744 0 37.543-5.513 73.723-22.505 98.095-46.069l9.466-9.154-13.139-13.858c-7.227-7.622-16.062-16.733-19.634-20.246l-6.493-6.389-7.333 6.029c-18.203 14.963-39.595 25.606-59.834 29.767-12.824 2.637-44.413 2.45-56-.332-24.419-5.861-43.426-15.989-60.403-32.187-18.541-17.69-30.009-37.214-37.21-63.349-2.078-7.541-2.621-12.23-3.088-26.651-.662-20.443.34-29.666 4.74-43.614 3.938-12.483 12.52-29.943 18.873-38.399 25.786-34.324 72.023-55.355 115.588-52.577 26.698 1.702 46.81 9.242 70.293 26.354 7.171 5.225 7.33 5.284 9.5 3.521C681.188 212.31 712 178.297 712 176.869c0-1.322-11.458-10.949-20-16.805-22.581-15.48-48.265-25.762-76.5-30.622-10.544-1.815-38.74-2.662-49.5-1.487M114.113 589.128c-2.962.492-9.487 2.267-14.5 3.943-28.656 9.585-50.159 31.893-59.258 61.478-2.547 8.28-2.757 10.263-2.8 26.451-.045 16.543.109 17.992 2.805 26.492 8.733 27.534 25.184 46.573 50.249 58.154 11.268 5.206 21.092 7.427 35.732 8.078 15.107.672 26.683-.756 37.769-4.659 15.526-5.466 31.992-17.064 41.622-29.318 6.021-7.662 6.706-6.235-7.811-16.249l-9.406-6.488-6.857 7.516c-10.336 11.327-20.384 17.493-34.158 20.959-8.235 2.072-22.791 2.336-30.597.555-7.457-1.701-22.421-9.092-28.202-13.927-10.15-8.49-17.749-20.676-21.272-34.113-2.282-8.703-2.275-25.342.015-34 5.068-19.172 17.609-34.562 35.056-43.023 10.335-5.012 15.663-6.173 28.5-6.209 20.9-.06 36.362 7.102 50.5 23.393 2.75 3.169 5.594 5.779 6.32 5.8 1.07.032 18.241-11.164 21.567-14.062 1.406-1.225-8.899-13.376-16.737-19.735-19.461-15.79-37.54-22.252-61.65-22.034-6.325.057-13.924.506-16.887.998M468 622c0 17.05-.221 31-.491 31-.271 0-2.633-1.644-5.25-3.653C451.479 641.071 438.683 637 423.45 637c-27.934 0-51.251 14.528-62.99 39.248-8.561 18.026-8.628 39.807-.177 57.915 11.683 25.034 35.007 39.865 62.627 39.822 15.633-.024 27.558-3.947 39.794-13.092l5.205-3.889.295 6.748.296 6.748 13.75.278 13.75.278V591h-28v31m-199.789 16.079c-9.134 1.41-21.712 6.298-29.461 11.45-3.713 2.468-6.75 4.791-6.75 5.162 0 1.688 11.409 19.309 12.502 19.309.676 0 2.301-.839 3.613-1.865 7.281-5.693 20.737-10.093 30.953-10.12 12.195-.033 22.461 5.959 24.816 14.485 1.487 5.385 1.461 15.5-.04 15.5-6.745 0-42.981 3.411-48.387 4.554-14.842 3.14-24.713 10.109-30.15 21.285-2.463 5.063-2.757 6.771-2.78 16.161-.025 9.643.211 10.97 2.888 16.255 3.66 7.227 12.836 16.082 19.906 19.208 19.246 8.512 43.614 4.736 57.923-8.975 4.128-3.956 4.703-4.231 5.249-2.51.337 1.063 2.856 3.949 5.598 6.414 6.025 5.417 11.544 6.901 23.909 6.431l8.5-.323.292-10c.417-14.255.314-14.5-6.111-14.5-2.905 0-5.821-.54-6.481-1.2-.884-.884-1.204-9.895-1.215-34.25-.015-35.069-.617-40.989-5.052-49.681-4.753-9.316-14.93-17.552-25.863-20.929-7.695-2.377-24.525-3.302-33.859-1.861m297.957.39c-18.802 4.271-35.777 17.822-44.537 35.553-19.563 39.593.286 84.788 42.869 97.614 4.478 1.349 9.425 1.815 19.5 1.836 15.423.032 23.506-1.864 34.9-8.186 6.539-3.629 22.1-17.559 22.1-19.784 0-.678-4.33-4.407-9.623-8.286l-9.623-7.054-5.127 5.239c-9.821 10.034-20.286 14.099-34.546 13.417-10.499-.502-19.393-4.224-26.922-11.266-5.536-5.179-10.973-14.561-11.384-19.645l-.275-3.407 52.25-.259 52.25-.259v-5.919c0-32.817-16.346-57.866-44.205-67.739-9.151-3.243-27.527-4.149-37.627-1.855m148.832.413c-6.936 2.239-10.549 4.128-16.318 8.531l-4.585 3.5-.298-5.707-.299-5.706h-27l-.257 65.778-.257 65.779 13.757-.279 13.757-.278.545-43c.379-29.926.915-44.064 1.763-46.5 2.367-6.8 7.656-12.611 14.583-16.021 15.549-7.654 34.193-1.741 41.021 13.01 1.99 4.3 2.111 6.569 2.588 48.511l.5 44 13.75.278 13.75.278-.017-44.278c-.014-34.141-.339-45.794-1.421-50.9-3.854-18.179-17.547-32.831-35.062-37.517-7.25-1.939-23.748-1.657-30.5.521m137.047.118c-29.457 7.954-49.581 32.046-51.7 61.895-.861 12.128 1.402 22.956 7.332 35.083 3.8 7.772 6.092 10.931 12.728 17.547 13.914 13.872 30.301 20.422 51.183 20.458 17.504.03 30.842-4.772 43.514-15.666 6.341-5.451 11.896-11.575 11.896-13.114 0-.568-4.319-4.177-9.598-8.02l-9.598-6.987-5.779 5.779c-3.53 3.53-8.444 7.09-12.631 9.152-6.525 3.212-7.377 3.373-17.873 3.373-10.299 0-11.459-.207-17.701-3.165-17.714-8.392-27.866-26.897-25.139-45.824 2.216-15.388 11.057-27.646 24.538-34.025 17.143-8.113 36.17-4.352 49.407 9.764 2.45 2.612 4.707 4.75 5.017 4.75 1.417 0 19.317-13.64 19.336-14.734.035-2.07-14.271-15.553-20.313-19.143-11.211-6.663-17.639-8.362-33.166-8.768-11.69-.306-15.23-.035-21.453 1.645M984 638.555c-9.931 2.133-21.618 8.391-29.777 15.945-28.87 26.73-29.865 71.714-2.199 99.457 22.994 23.058 61.578 26.757 88.992 8.533 6.674-4.438 18.365-15.942 17.781-17.499-.163-.436-4.572-3.958-9.797-7.826l-9.5-7.033-6 5.761c-7.274 6.984-9.533 8.423-17.363 11.061-12.531 4.221-27.676 2.092-38.65-5.433-7.643-5.241-15.933-17.227-16.673-24.106l-.314-2.915 52.869-.259 52.869-.259-.682-10.741c-1.353-21.347-6.998-34.824-19.999-47.752-9.103-9.052-16.608-13.305-29.125-16.506-9.152-2.341-22.693-2.52-32.432-.428m-569.098 23.971c-16.734 4.062-30.135 18.957-33.088 36.776C377.642 724.478 398.703 749 424.497 749c39.116 0 58.598-47.346 30.781-74.808-11.419-11.274-25.378-15.307-40.376-11.666m155.598-.127c-12.101 3.827-21.599 13.127-25.923 25.384L543.089 692h37.955c32.759 0 37.956-.202 37.956-1.473 0-2.425-4.827-11.862-8.098-15.83-9.045-10.973-27.159-16.486-40.402-12.298m417.786-.007c-6.562 2.142-12.425 5.98-17.622 11.536-4.384 4.687-9.631 13.83-9.654 16.822-.008.978 8.237 1.25 37.92 1.25h37.93l-.852-2.971c-1.511-5.27-6.402-13.311-10.508-17.276-2.2-2.125-6.855-5.271-10.345-6.992-5.242-2.585-7.765-3.183-14.5-3.437-5.034-.189-9.768.22-12.369 1.068M283 715.55c-7.975.711-16.868 1.811-19.762 2.445-11.597 2.543-17.287 12.777-12.597 22.66 2.284 4.815 6.89 8.01 14.27 9.901 5.242 1.343 7.393 1.422 12.832.475 17.152-2.987 27.226-13.998 27.247-29.781L305 714l-3.75.129c-2.062.071-10.275.71-18.25 1.421"/></svg>

<svg xmlns="http://www.w3.org/2000/svg" width="1100" height="800" viewBox="0 0 1100 800" version="1.1"><path d="M 559.293 56.500 C 557.076 69.440, 552.154 74.549, 538.590 77.992 C 529.397 80.326, 521.291 80.566, 516.687 78.643 C 514.900 77.896, 510.075 73.665, 505.965 69.241 L 498.492 61.197 486.496 66.179 C 470.554 72.800, 470.665 72.677, 472.130 82.098 C 473.843 93.118, 472.929 96.299, 466.139 102.943 C 463.003 106.012, 457.076 110.301, 452.968 112.474 C 441.155 118.724, 434.930 117.961, 420.850 108.540 L 417.200 106.097 406.100 116.087 C 399.995 121.581, 395 126.430, 395 126.862 C 395 127.294, 396.800 131.126, 399 135.378 C 405.454 147.849, 403.983 155.860, 392.804 169.117 C 384.576 178.875, 377.815 181.114, 364.534 178.478 C 359.786 177.536, 355.671 176.995, 355.390 177.277 C 355.109 177.558, 351.809 183.492, 348.058 190.464 L 341.237 203.140 348.552 210.455 C 354.115 216.018, 356.034 218.663, 356.567 221.503 C 358.193 230.172, 354.823 244.737, 349.230 253.217 C 345.534 258.820, 340.874 261.068, 330.358 262.320 L 321.216 263.409 320.575 267.955 C 320.223 270.455, 319.659 277.499, 319.322 283.609 L 318.709 294.718 324.980 296.836 C 338.610 301.439, 342.214 307.239, 342.826 325.558 C 343.204 336.881, 343.075 337.916, 340.713 342.558 C 338.584 346.743, 337.176 348.036, 331.531 351 C 327.864 352.925, 324.107 355.336, 323.182 356.357 C 320.809 358.978, 321.087 367.421, 323.919 378.766 L 326.232 388.032 332.366 387.407 C 335.994 387.037, 340.273 387.260, 342.841 387.954 C 352.850 390.657, 362.801 405.487, 363.779 419.159 C 364.461 428.694, 362.455 433.515, 354.997 440.265 L 349.149 445.557 356.943 457.847 C 361.230 464.607, 365.195 470.595, 365.756 471.156 C 366.447 471.847, 369.077 471.344, 373.947 469.587 C 382.456 466.518, 388.712 466.300, 393.790 468.897 C 398.131 471.117, 408.509 481.657, 412.335 487.730 C 415.982 493.519, 416.004 501.324, 412.395 509 C 407.420 519.582, 406.792 517.890, 419.294 527.588 C 425.457 532.369, 431.062 536.722, 431.749 537.262 C 432.645 537.966, 434.155 537.051, 437.094 534.023 C 439.346 531.702, 443.669 528.667, 446.700 527.280 C 453.732 524.060, 458.153 524.570, 469.555 529.913 C 485.682 537.470, 491.614 546.818, 489.058 560.646 C 488.447 563.952, 488.369 566.769, 488.874 567.274 C 489.358 567.758, 495.913 570.109, 503.441 572.499 L 517.129 576.845 519.815 572.864 C 526.194 563.406, 528.826 560.375, 532.547 558.201 C 536.037 556.161, 537.436 555.948, 544.500 556.375 C 563.215 557.509, 570.348 561.439, 577 574.283 L 581.500 582.972 596.231 582.986 L 610.962 583 611.537 580.250 C 614.139 567.816, 616.211 563.450, 621.345 559.577 C 629.090 553.735, 649.784 550.639, 656.675 554.291 C 658.421 555.216, 662.675 559.129, 666.129 562.987 C 670.494 567.863, 673.117 570, 674.735 570 C 676.842 570, 696.457 562.263, 699.942 560.057 C 701.182 559.272, 701.200 558.013, 700.069 551.048 C 699.011 544.532, 698.997 542.083, 699.997 538.512 C 702.813 528.455, 720.729 515.999, 732.376 516.001 C 736.454 516.002, 745.009 519.536, 751.629 523.955 L 754.759 526.044 758.815 522.654 C 769.661 513.593, 777.049 506.526, 776.789 505.464 C 776.354 503.694, 738.085 467, 736.674 467 C 736.002 467, 731.637 470.174, 726.976 474.053 C 693.234 502.129, 661.996 516.902, 621 524.170 C 609.527 526.204, 568.276 525.889, 555.500 523.670 C 542.850 521.472, 528.717 517.919, 516.799 513.941 C 504.518 509.841, 477.692 496.627, 466.830 489.327 C 421.803 459.064, 392.705 414.713, 380.341 357.500 C 378.070 346.990, 377.687 342.457, 377.259 321 C 376.754 295.661, 377.339 287.964, 381.060 271 C 391.410 223.812, 416.610 182.961, 454.436 152.052 C 502.623 112.678, 573.785 96.751, 634.948 111.654 C 665.224 119.030, 694.071 133.229, 719.422 153.233 C 726.345 158.695, 728.698 160.054, 729.922 159.297 C 731.742 158.172, 752.793 130.797, 759.627 120.668 C 762.162 116.911, 763.846 113.498, 763.368 113.085 C 762.891 112.672, 757.470 108.430, 751.322 103.659 L 740.145 94.983 732.516 100.457 C 724.410 106.272, 720.323 107.627, 713.955 106.609 C 704.189 105.047, 689.677 96.328, 686.023 89.826 C 684.040 86.299, 683.556 83.773, 683.189 75.036 L 682.746 64.500 670.623 60.702 C 655.218 55.875, 654.139 55.897, 651.172 61.091 C 648.111 66.451, 642.342 72.772, 638.875 74.565 C 635.539 76.290, 623.864 76.462, 615.465 74.909 C 603.868 72.765, 598.645 68.241, 594.480 56.732 L 592.224 50.500 576.319 50.226 L 560.414 49.952 559.293 56.500 M 566 127.955 C 522.843 132.667, 482.751 152.057, 451.863 183.154 C 377.310 258.212, 378.328 378.417, 454.136 451.531 C 483.639 479.986, 519.225 497.580, 559.128 503.439 C 572.983 505.474, 599.017 505.474, 612.872 503.439 C 650.415 497.926, 686.595 480.934, 710.967 457.370 L 720.433 448.216 707.294 434.358 C 700.067 426.736, 691.232 417.625, 687.660 414.112 L 681.167 407.723 673.834 413.752 C 655.631 428.715, 634.239 439.358, 614 443.519 C 601.176 446.156, 569.587 445.969, 558 443.187 C 533.581 437.326, 514.574 427.198, 497.597 411 C 479.056 393.310, 467.588 373.786, 460.387 347.651 C 458.309 340.110, 457.766 335.421, 457.299 321 C 456.637 300.557, 457.639 291.334, 462.039 277.386 C 465.977 264.903, 474.559 247.443, 480.912 238.987 C 506.698 204.663, 552.935 183.632, 596.500 186.410 C 623.198 188.112, 643.310 195.652, 666.793 212.764 C 673.964 217.989, 674.123 218.048, 676.293 216.285 C 681.188 212.310, 712 178.297, 712 176.869 C 712 175.547, 700.542 165.920, 692 160.064 C 669.419 144.584, 643.735 134.302, 615.500 129.442 C 604.956 127.627, 576.760 126.780, 566 127.955 M 114.113 589.128 C 111.151 589.620, 104.626 591.395, 99.613 593.071 C 70.957 602.656, 49.454 624.964, 40.355 654.549 C 37.808 662.829, 37.598 664.812, 37.555 681 C 37.510 697.543, 37.664 698.992, 40.360 707.492 C 49.093 735.026, 65.544 754.065, 90.609 765.646 C 101.877 770.852, 111.701 773.073, 126.341 773.724 C 141.448 774.396, 153.024 772.968, 164.110 769.065 C 179.636 763.599, 196.102 752.001, 205.732 739.747 C 211.753 732.085, 212.438 733.512, 197.921 723.498 L 188.515 717.010 181.658 724.526 C 171.322 735.853, 161.274 742.019, 147.500 745.485 C 139.265 747.557, 124.709 747.821, 116.903 746.040 C 109.446 744.339, 94.482 736.948, 88.701 732.113 C 78.551 723.623, 70.952 711.437, 67.429 698 C 65.147 689.297, 65.154 672.658, 67.444 664 C 72.512 644.828, 85.053 629.438, 102.500 620.977 C 112.835 615.965, 118.163 614.804, 131 614.768 C 151.900 614.708, 167.362 621.870, 181.500 638.161 C 184.250 641.330, 187.094 643.940, 187.820 643.961 C 188.890 643.993, 206.061 632.797, 209.387 629.899 C 210.793 628.674, 200.488 616.523, 192.650 610.164 C 173.189 594.374, 155.110 587.912, 131 588.130 C 124.675 588.187, 117.076 588.636, 114.113 589.128 M 468 622 C 468 639.050, 467.779 653, 467.509 653 C 467.238 653, 464.876 651.356, 462.259 649.347 C 451.479 641.071, 438.683 637, 423.450 637 C 395.516 637, 372.199 651.528, 360.460 676.248 C 351.899 694.274, 351.832 716.055, 360.283 734.163 C 371.966 759.197, 395.290 774.028, 422.910 773.985 C 438.543 773.961, 450.468 770.038, 462.704 760.893 L 467.909 757.004 468.204 763.752 L 468.500 770.500 482.250 770.778 L 496 771.056 496 681.028 L 496 591 482 591 L 468 591 468 622 M 268.211 638.079 C 259.077 639.489, 246.499 644.377, 238.750 649.529 C 235.037 651.997, 232 654.320, 232 654.691 C 232 656.379, 243.409 674, 244.502 674 C 245.178 674, 246.803 673.161, 248.115 672.135 C 255.396 666.442, 268.852 662.042, 279.068 662.015 C 291.263 661.982, 301.529 667.974, 303.884 676.500 C 305.371 681.885, 305.345 692, 303.844 692 C 297.099 692, 260.863 695.411, 255.457 696.554 C 240.615 699.694, 230.744 706.663, 225.307 717.839 C 222.844 722.902, 222.550 724.610, 222.527 734 C 222.502 743.643, 222.738 744.970, 225.415 750.255 C 229.075 757.482, 238.251 766.337, 245.321 769.463 C 264.567 777.975, 288.935 774.199, 303.244 760.488 C 307.372 756.532, 307.947 756.257, 308.493 757.978 C 308.830 759.041, 311.349 761.927, 314.091 764.392 C 320.116 769.809, 325.635 771.293, 338 770.823 L 346.500 770.500 346.792 760.500 C 347.209 746.245, 347.106 746, 340.681 746 C 337.776 746, 334.860 745.460, 334.200 744.800 C 333.316 743.916, 332.996 734.905, 332.985 710.550 C 332.970 675.481, 332.368 669.561, 327.933 660.869 C 323.180 651.553, 313.003 643.317, 302.070 639.940 C 294.375 637.563, 277.545 636.638, 268.211 638.079 M 566.168 638.469 C 547.366 642.740, 530.391 656.291, 521.631 674.022 C 502.068 713.615, 521.917 758.810, 564.500 771.636 C 568.978 772.985, 573.925 773.451, 584 773.472 C 599.423 773.504, 607.506 771.608, 618.900 765.286 C 625.439 761.657, 641 747.727, 641 745.502 C 641 744.824, 636.670 741.095, 631.377 737.216 L 621.754 730.162 616.627 735.401 C 606.806 745.435, 596.341 749.500, 582.081 748.818 C 571.582 748.316, 562.688 744.594, 555.159 737.552 C 549.623 732.373, 544.186 722.991, 543.775 717.907 L 543.500 714.500 595.750 714.241 L 648 713.982 648 708.063 C 648 675.246, 631.654 650.197, 603.795 640.324 C 594.644 637.081, 576.268 636.175, 566.168 638.469 M 715 638.882 C 708.064 641.121, 704.451 643.010, 698.682 647.413 L 694.097 650.913 693.799 645.206 L 693.500 639.500 680 639.500 L 666.500 639.500 666.243 705.278 L 665.986 771.057 679.743 770.778 L 693.500 770.500 694.045 727.500 C 694.424 697.574, 694.960 683.436, 695.808 681 C 698.175 674.200, 703.464 668.389, 710.391 664.979 C 725.940 657.325, 744.584 663.238, 751.412 677.989 C 753.402 682.289, 753.523 684.558, 754 726.500 L 754.500 770.500 768.250 770.778 L 782 771.056 781.983 726.778 C 781.969 692.637, 781.644 680.984, 780.562 675.878 C 776.708 657.699, 763.015 643.047, 745.500 638.361 C 738.250 636.422, 721.752 636.704, 715 638.882 M 852.047 639 C 822.590 646.954, 802.466 671.046, 800.347 700.895 C 799.486 713.023, 801.749 723.851, 807.679 735.978 C 811.479 743.750, 813.771 746.909, 820.407 753.525 C 834.321 767.397, 850.708 773.947, 871.590 773.983 C 889.094 774.013, 902.432 769.211, 915.104 758.317 C 921.445 752.866, 927 746.742, 927 745.203 C 927 744.635, 922.681 741.026, 917.402 737.183 L 907.804 730.196 902.025 735.975 C 898.495 739.505, 893.581 743.065, 889.394 745.127 C 882.869 748.339, 882.017 748.500, 871.521 748.500 C 861.222 748.500, 860.062 748.293, 853.820 745.335 C 836.106 736.943, 825.954 718.438, 828.681 699.511 C 830.897 684.123, 839.738 671.865, 853.219 665.486 C 870.362 657.373, 889.389 661.134, 902.626 675.250 C 905.076 677.862, 907.333 680, 907.643 680 C 909.060 680, 926.960 666.360, 926.979 665.266 C 927.014 663.196, 912.708 649.713, 906.666 646.123 C 895.455 639.460, 889.027 637.761, 873.500 637.355 C 861.810 637.049, 858.270 637.320, 852.047 639 M 984 638.555 C 974.069 640.688, 962.382 646.946, 954.223 654.500 C 925.353 681.230, 924.358 726.214, 952.024 753.957 C 975.018 777.015, 1013.602 780.714, 1041.016 762.490 C 1047.690 758.052, 1059.381 746.548, 1058.797 744.991 C 1058.634 744.555, 1054.225 741.033, 1049 737.165 L 1039.500 730.132 1033.500 735.893 C 1026.226 742.877, 1023.967 744.316, 1016.137 746.954 C 1003.606 751.175, 988.461 749.046, 977.487 741.521 C 969.844 736.280, 961.554 724.294, 960.814 717.415 L 960.500 714.500 1013.369 714.241 L 1066.238 713.982 1065.556 703.241 C 1064.203 681.894, 1058.558 668.417, 1045.557 655.489 C 1036.454 646.437, 1028.949 642.184, 1016.432 638.983 C 1007.280 636.642, 993.739 636.463, 984 638.555 M 414.902 662.526 C 398.168 666.588, 384.767 681.483, 381.814 699.302 C 377.642 724.478, 398.703 749, 424.497 749 C 463.613 749, 483.095 701.654, 455.278 674.192 C 443.859 662.918, 429.900 658.885, 414.902 662.526 M 570.500 662.399 C 558.399 666.226, 548.901 675.526, 544.577 687.783 L 543.089 692 581.044 692 C 613.803 692, 619 691.798, 619 690.527 C 619 688.102, 614.173 678.665, 610.902 674.697 C 601.857 663.724, 583.743 658.211, 570.500 662.399 M 988.286 662.392 C 981.724 664.534, 975.861 668.372, 970.664 673.928 C 966.280 678.615, 961.033 687.758, 961.010 690.750 C 961.002 691.728, 969.247 692, 998.930 692 L 1036.860 692 1036.008 689.029 C 1034.497 683.759, 1029.606 675.718, 1025.500 671.753 C 1023.300 669.628, 1018.645 666.482, 1015.155 664.761 C 1009.913 662.176, 1007.390 661.578, 1000.655 661.324 C 995.621 661.135, 990.887 661.544, 988.286 662.392 M 283 715.550 C 275.025 716.261, 266.132 717.361, 263.238 717.995 C 251.641 720.538, 245.951 730.772, 250.641 740.655 C 252.925 745.470, 257.531 748.665, 264.911 750.556 C 270.153 751.899, 272.304 751.978, 277.743 751.031 C 294.895 748.044, 304.969 737.033, 304.990 721.250 L 305 714 301.250 714.129 C 299.188 714.200, 290.975 714.839, 283 715.550" stroke="none" fill="#040404" fill-rule="evenodd"/></svg>
